icons/svg/road_shields/h_white_usshield_3_road_shield.svg

<?xml version="1.0" encoding="UTF-8" standalone="no"?>
<!-- Generator: Adobe Illustrator 16.0.4, SVG Export Plug-In . SVG Version: 6.00 Build 0)  -->

<svg
   xmlns:dc="http://purl.org/dc/elements/1.1/"
   xmlns:cc="http://creativecommons.org/ns#"
   xmlns:rdf="http://www.w3.org/1999/02/22-rdf-syntax-ns#"
   xmlns:svg="http://www.w3.org/2000/svg"
   xmlns="http://www.w3.org/2000/svg"
   xmlns:sodipodi="http://sodipodi.sourceforge.net/DTD/sodipodi-0.dtd"
   xmlns:inkscape="http://www.inkscape.org/namespaces/inkscape"
   version="1.1"
   id="Слой_1"
   x="0px"
   y="0px"
   width="30"
   height="25"
   viewBox="0 0 30 25"
   enable-background="new 0 0 17.143 17.17"
   xml:space="preserve"
   inkscape:version="0.91 r13725"
   sodipodi:docname="h_white_usshield_3_road_shield.svg"><metadata
     id="metadata13"><rdf:RDF><cc:Work
         rdf:about=""><dc:format>image/svg+xml</dc:format><dc:type
           rdf:resource="http://purl.org/dc/dcmitype/StillImage" /><dc:title></dc:title></cc:Work></rdf:RDF></metadata><defs
     id="defs11" /><sodipodi:namedview
     pagecolor="#ffffff"
     bordercolor="#666666"
     borderopacity="1"
     objecttolerance="10"
     gridtolerance="10"
     guidetolerance="10"
     inkscape:pageopacity="0"
     inkscape:pageshadow="2"
     inkscape:window-width="1920"
     inkscape:window-height="1006"
     id="namedview9"
     showgrid="false"
     inkscape:zoom="19.43823"
     inkscape:cx="-2.1922553"
     inkscape:cy="17.719398"
     inkscape:window-x="1920"
     inkscape:window-y="0"
     inkscape:window-maximized="1"
     inkscape:current-layer="Слой_1" /><path
     id="path11"
     d="m 15,3.7245377 c -1.345259,0.718963 -2.931005,1.133907 -4.62891,1.133907 -1.6979073,0 -3.2836707,-0.4150064 -4.6289117,-1.1339695 l -4.258598,3.6806111 c 0.7836963,0.9627381 1.2438029,2.1364326 1.2438029,3.4030497 0,0.914074 -0.2396366,1.779765 -0.6676119,2.552689 -0.3693727,0.667924 -0.576191,1.415922 -0.576191,2.205617 0,2.828219 2.6526553,5.12085 5.9250059,5.12085 l 3.7073958,0 c 1.568026,0 2.96744,0.623916 3.884018,1.600203 0.916561,-0.976287 2.315975,-1.600203 3.884018,-1.600203 l 3.707396,0 c 3.272351,0 5.925005,-2.292631 5.925005,-5.12085 0,-0.789695 -0.206818,-1.537693 -0.576227,-2.205617 -0.427957,-0.772924 -0.667575,-1.638615 -0.667575,-2.552689 0,-1.2666171 0.460106,-2.4403116 1.243802,-3.4030497 L 24.257822,3.7244752 c -1.345242,0.7189631 -2.931005,1.1339695 -4.628912,1.1339695 -1.697905,0 -3.283669,-0.414944 -4.62891,-1.133907 z"
     inkscape:connector-curvature="0"
     style="color:#000000;clip-rule:evenodd;display:inline;overflow:visible;visibility:visible;opacity:1;isolation:auto;mix-blend-mode:normal;color-interpolation:sRGB;color-interpolation-filters:linearRGB;solid-color:#000000;solid-opacity:1;fill:#ffffff;fill-opacity:1;fill-rule:evenodd;stroke:#696969;stroke-width:0.99999994;stroke-linecap:butt;stroke-linejoin:miter;stroke-miterlimit:4;stroke-dasharray:none;stroke-dashoffset:0;stroke-opacity:1;color-rendering:auto;image-rendering:auto;shape-rendering:auto;text-rendering:auto;enable-background:accumulate" /></svg>

<svg width="30" height="25" viewBox="0 0 30 25" fill="none" xmlns="http://www.w3.org/2000/svg">
<path fill-rule="evenodd" clip-rule="evenodd" d="M15 3.72455C13.6547 4.44351 12.069 4.85846 10.3711 4.85846C8.67318 4.85846 7.08742 4.44345 5.74218 3.72449L1.48358 7.4051C2.26728 8.36784 2.72738 9.54153 2.72738 10.8081C2.72738 11.7222 2.48775 12.5879 2.05977 13.3608C1.6904 14.0288 1.48358 14.7768 1.48358 15.5665C1.48358 18.3947 4.13624 20.6873 7.40859 20.6873H11.116C12.684 20.6873 14.0834 21.3112 15 22.2875C15.9166 21.3112 17.316 20.6873 18.884 20.6873H22.5914C25.8638 20.6873 28.5164 18.3947 28.5164 15.5665C28.5164 14.7768 28.3096 14.0288 27.9402 13.3608C27.5122 12.5879 27.2726 11.7222 27.2726 10.8081C27.2726 9.54153 27.7327 8.36784 28.5164 7.4051L24.2578 3.72449C22.9126 4.44345 21.3268 4.85846 19.6289 4.85846C17.931 4.85846 16.3452 4.44351 15 3.72455Z" fill="white" stroke="#696969"/>
</svg>
